svgs/light/star-and-crescent.svg

<svg xmlns="http://www.w3.org/2000/svg" viewBox="0 0 512 512"><!--! Font Awesome Pro 6.0.0-alpha3 by @fontawesome - https://fontawesome.com License - https://fontawesome.com/license (Commercial License) --><path d="M503.5 213.9l-76.38-11.12L392.9 133.5C391.1 129.9 387.5 128 384 128s-7.125 1.875-9 5.5l-34.13 69.25l-76.38 11.12c-8.125 1.125-11.38 11.25-5.5 17l55.25 53.88l-13 76c-1.125 6.5 4 11.75 9.75 11.75c1.5 0 3.125-.375 4.625-1.25l68.38-35.88l68.25 35.88c1.625 .875 3.125 1.25 4.75 1.25c5.75 0 10.88-5.25 9.75-11.75l-13-76l55.25-53.88C514.9 225.1 511.6 215 503.5 213.9zM431.4 261.8l-12 11.75l8.25 48.63L384 299.3l-43.63 22.88l8.25-48.63l-35.25-34.38L362.1 232L384 187.8L405.9 232l48.75 7.125L431.4 261.8zM337.7 437.2l-8.734 .4687C228 437.7 145.8 356.2 145.8 256S228 74.31 328.1 74.31l8.734 .4687c14.17 0 26.61-10.06 29.66-24.25c2.75-14.5-5.234-28.78-19.08-34.03C319.1 5.562 288.7 0 257.9 0C115.7 0-.0001 114.8-.0001 256s115.7 256 257.9 256c30.44 0 60.7-5.5 89.56-16.19C359.7 491.7 368 480.2 368 467.3C368 450.7 354.4 437.2 337.7 437.2zM257.9 480C133.3 480 32 379.5 32 256s101.3-224 225.9-224c22.8 0 45.36 3.469 67.25 10.34C208.3 44.38 113.8 139.4 113.8 256c0 116.5 94.38 211.6 211.2 213.7C303 476.5 280.5 480 257.9 480z"/></svg>

<svg xmlns="http://www.w3.org/2000/svg" viewBox="0 0 512 512"><!-- Font Awesome Pro 6.0.0-alpha2 by @fontawesome - https://fontawesome.com License - https://fontawesome.com/license (Commercial License) --><path d="M503.502 213.875L427.125 202.75L392.875 133.5C391.125 129.875 387.5 128 384 128S376.875 129.875 375 133.5L340.875 202.75L264.498 213.875C256.373 215 253.123 225.125 258.998 230.875L314.248 284.75L301.248 360.75C300.123 367.25 305.248 372.5 310.998 372.5C312.498 372.5 314.123 372.125 315.623 371.25L384 335.375L452.252 371.25C453.877 372.125 455.377 372.5 457.002 372.5C462.752 372.5 467.877 367.25 466.752 360.75L453.752 284.75L509.002 230.875C514.877 225.125 511.627 215 503.502 213.875ZM431.375 261.75L419.375 273.5L422.125 290.125L427.625 322.125L398.875 307L384 299.25L369.125 307L340.375 322.125L345.875 290.125L348.625 273.5L336.625 261.75L313.373 239.125L345.5 234.375L362.125 232L369.625 216.875L384 187.75L398.375 216.875L405.875 232L422.5 234.375L454.627 239.125L431.375 261.75ZM337.703 437.219L328.969 437.687C228 437.688 145.844 356.188 145.844 256S228 74.312 328.969 74.312L337.703 74.781C351.875 74.781 364.312 64.719 367.359 50.531C370.109 36.031 362.125 21.75 348.281 16.5C319.094 5.562 288.672 0 257.875 0C115.688 0 0 114.844 0 256S115.688 512 257.875 512C288.313 512 318.578 506.5 347.438 495.812C359.734 491.656 368 480.188 368 467.281C368 450.719 354.406 437.219 337.703 437.219ZM257.875 480C133.328 480 32 379.5 32 256S133.328 32 257.875 32C280.672 32 303.234 35.469 325.125 42.344C208.266 44.375 113.844 139.438 113.844 256C113.844 372.531 208.219 467.562 325.031 469.656C303 476.531 280.469 480 257.875 480Z"/></svg>
